X: 30461
M: 2/4
L: 1/16
K: Bb
V: 1 staves=3
|: FE |\
bfdB g_ecA | BGec BAGF | GEDE CEcd | ecAc B2 :|
V: 2
z2 |\
|: z2 |\
d2B2A2F2 | E2G2F2D2 | B,2B,2G,2G2 | F2E2D2 :|
V: 3 clef=bass middle=d
z2 |\
|: z2 |\


